; generated by PrusaSlicer 2.3.1+win64 on 2023-05-02 at 15:19:39 UTC

; 

; external perimeters extrusion width = 0.60mm
; perimeters extrusion width = 0.50mm
; infill extrusion width = 0.50mm
; solid infill extrusion width = 0.50mm
; top infill extrusion width = 0.45mm
; first layer extrusion width = 0.42mm

M73 P0 R10
M73 Q0 S10
M201 X1000 Y1000 Z200 E5000 ; sets maximum accelerations, mm/sec^2
M203 X200 Y200 Z12 E120 ; sets maximum feedrates, mm/sec
M204 P1250 R1250 T1250 ; sets acceleration (P, T) and retract acceleration (R), mm/sec^2
M205 X8.00 Y8.00 Z0.40 E4.50 ; sets the jerk limits, mm/sec
M205 S0 T0 ; sets the minimum extruding and travel feed rate, mm/sec
M107
;TYPE:Custom
M862.3 P "MK3S" ; printer model check
M862.1 P0.4 ; nozzle diameter check
M115 U3.9.3 ; tell printer latest fw version
G90 ; use absolute coordinates
M83 ; extruder relative mode
M104 S215 ; set extruder temp
M140 S67 ; set bed temp
M190 S67 ; wait for bed temp
M109 S215 ; wait for extruder temp
G28 W ; home all without mesh bed level
G80 ; mesh bed leveling
G1 Y-3.0 F1000.0 ; go outside print area
G92 E0.0
G1 X60.0 E9.0 F1000.0 ; intro line
G1 X100.0 E12.5 F1000.0 ; intro line
G92 E0.0
M221 S95

; Don't change E values below. Excessive value can damage the printer.

M907 E538 ; set extruder motor current
G21 ; set units to millimeters
G90 ; use absolute coordinates
M83 ; use relative distances for extrusion
M900 K0.05 ; Filament gcode LA 1.5
M900 K30 ; Filament gcode LA 1.0
;LAYER_CHANGE
;Z:0.2
;HEIGHT:0.2
;BEFORE_LAYER_CHANGE
G92 E0.0
;0.2


G1 E-0.80000 F2100.000
M73 P1 R10
G1 Z0.400 F10800.000
;AFTER_LAYER_CHANGE
;0.2
; printing object arm.stl id:0 copy 0
M73 Q1 S10
G1 X171.306 Y21.339
G1 Z0.200
G1 E0.80000 F2100.000
M204 S1000
;TYPE:Perimeter
;WIDTH:0.42
G1 F1200.000
G1 X171.396 Y20.981 E0.01157
G1 X171.534 Y20.639 E0.01157
G1 X171.718 Y20.319 E0.01157
G1 X171.946 Y20.028 E0.01157
G1 X172.211 Y19.772 E0.01157
G1 X172.510 Y19.555 E0.01157
G1 X172.835 Y19.382 E0.01157
G1 X173.224 Y19.241 E0.01295
G1 X173.828 Y19.153 E0.01916
G1 X174.269 Y19.177 E0.01385
G1 X174.640 Y19.256 E0.01190
G1 X174.987 Y19.382 E0.01157
G1 X175.313 Y19.555 E0.01157
G1 X175.611 Y19.772 E0.01157
G1 X175.877 Y20.028 E0.01157
G1 X176.104 Y20.319 E0.01157
G1 X176.288 Y20.639 E0.01157
G1 X176.427 Y20.981 E0.01157
G1 X176.516 Y21.339 E0.01157
G1 X176.555 Y21.706 E0.01157
G1 X176.542 Y22.075 E0.01157
G1 X176.478 Y22.438 E0.01157
G1 X176.364 Y22.789 E0.01157
G1 X176.183 Y23.160 E0.01295
G1 X175.809 Y23.644 E0.01916
G1 X175.475 Y23.933 E0.01385
G1 X175.116 Y24.157 E0.01328
G1 X174.542 Y24.369 E0.01916
G1 X174.062 Y24.444 E0.01523
G1 X173.442 Y24.403 E0.01949
G1 X172.973 Y24.276 E0.01523
G1 X172.423 Y23.987 E0.01949
G1 X172.081 Y23.709 E0.01385
G1 X171.797 Y23.394 E0.01328
G1 X171.489 Y22.866 E0.01916
G1 X171.347 Y22.448 E0.01385
G1 X171.281 Y22.075 E0.01189
G1 X171.268 Y21.706 E0.01157
G1 X171.300 Y21.399 E0.00969
G1 X171.675 Y21.438 F10800.000
G1 F1200.000
G1 X171.755 Y21.098 E0.01096
G1 X171.874 Y20.804 E0.00992
G1 X172.032 Y20.531 E0.00992
G1 X172.226 Y20.281 E0.00992
G1 X172.454 Y20.062 E0.00992
G1 X172.710 Y19.876 E0.00992
G1 X172.989 Y19.727 E0.00992
G1 X173.316 Y19.608 E0.01091
G1 X173.845 Y19.531 E0.01677
G1 X174.219 Y19.552 E0.01175
G1 X174.536 Y19.619 E0.01015
G1 X174.833 Y19.727 E0.00992
G1 X175.112 Y19.876 E0.00992
G1 X175.368 Y20.062 E0.00992
G1 X175.596 Y20.281 E0.00992
G1 X175.791 Y20.531 E0.00992
G1 X175.949 Y20.804 E0.00992
G1 X176.067 Y21.098 E0.00992
G1 X176.144 Y21.405 E0.00992
G1 X176.177 Y21.719 E0.00992
G1 X176.166 Y22.035 E0.00992
G1 X176.111 Y22.347 E0.00992
G1 X176.013 Y22.647 E0.00992
G1 X175.861 Y22.960 E0.01091
G1 X175.533 Y23.383 E0.01677
G1 X175.250 Y23.628 E0.01175
G1 X174.949 Y23.817 E0.01114
G1 X174.447 Y24.002 E0.01677
G1 X174.045 Y24.065 E0.01274
G1 X173.504 Y24.029 E0.01700
G1 X173.112 Y23.923 E0.01274
G1 X172.632 Y23.671 E0.01700
G1 X172.341 Y23.434 E0.01175
G1 X172.104 Y23.170 E0.01114
G1 X171.834 Y22.709 E0.01677
G1 X171.713 Y22.354 E0.01175
G1 X171.657 Y22.035 E0.01015
G1 X171.646 Y21.719 E0.00992
G1 X171.669 Y21.498 E0.00698
G1 X172.044 Y21.537 F10800.000
G1 F1200.000
G1 X172.115 Y21.214 E0.01036
G1 X172.213 Y20.970 E0.00826
G1 X172.345 Y20.742 E0.00826
G1 X172.507 Y20.534 E0.00826
G1 X172.697 Y20.351 E0.00826
G1 X172.910 Y20.196 E0.00826
G1 X173.143 Y20.073 E0.00826
G1 X173.409 Y19.976 E0.00887
G1 X173.862 Y19.910 E0.01437
G1 X174.170 Y19.927 E0.00965
G1 X174.432 Y19.982 E0.00841
G1 X174.679 Y20.073 E0.00826
G1 X174.912 Y20.196 E0.00826
G1 X175.125 Y20.351 E0.00826
G1 X175.315 Y20.534 E0.00826
G1 X175.477 Y20.742 E0.00826
G1 X175.609 Y20.970 E0.00826
G1 X175.708 Y21.214 E0.00826
G1 X175.771 Y21.470 E0.00826
G1 X175.799 Y21.732 E0.00826
G1 X175.790 Y21.996 E0.00826
G1 X175.744 Y22.255 E0.00826
G1 X175.663 Y22.506 E0.00826
G1 X175.539 Y22.760 E0.00887
G1 X175.258 Y23.123 E0.01437
G1 X175.025 Y23.324 E0.00965
G1 X174.782 Y23.476 E0.00901
G1 X174.352 Y23.635 E0.01437
G1 X174.028 Y23.686 E0.01026
G1 X173.566 Y23.655 E0.01452
G1 X173.251 Y23.570 E0.01026
G1 X172.841 Y23.355 E0.01452
G1 X172.602 Y23.160 E0.00965
G1 X172.410 Y22.947 E0.00901
G1 X172.179 Y22.551 E0.01437
G1 X172.079 Y22.260 E0.00965
G1 X172.033 Y21.996 E0.00841
G1 X172.023 Y21.732 E0.00826
G1 X172.038 Y21.597 E0.00427
G1 X172.413 Y21.636 F10800.000
;TYPE:External perimeter
G1 F1200.000
G1 X172.474 Y21.331 E0.00975
G1 X172.553 Y21.136 E0.00661
G1 X172.658 Y20.953 E0.00661
G1 X172.788 Y20.787 E0.00661
G1 X172.940 Y20.641 E0.00661
G1 X173.110 Y20.517 E0.00661
G1 X173.297 Y20.418 E0.00661
G1 X173.501 Y20.343 E0.00683
G1 X173.879 Y20.288 E0.01198
G1 X174.120 Y20.302 E0.00756
G1 X174.328 Y20.346 E0.00666
G1 X174.526 Y20.418 E0.00661
G1 X174.712 Y20.517 E0.00661
G1 X174.882 Y20.641 E0.00661
G1 X175.034 Y20.787 E0.00661
G1 X175.164 Y20.953 E0.00661
G1 X175.269 Y21.136 E0.00661
G1 X175.348 Y21.331 E0.00661
G1 X175.399 Y21.536 E0.00661
G1 X175.421 Y21.745 E0.00661
G1 X175.414 Y21.956 E0.00661
G1 X175.377 Y22.164 E0.00661
G1 X175.312 Y22.364 E0.00661
G1 X175.217 Y22.560 E0.00683
G1 X174.983 Y22.862 E0.01198
G1 X174.801 Y23.020 E0.00756
G1 X174.615 Y23.136 E0.00688
G1 X174.256 Y23.268 E0.01198
G1 X174.011 Y23.307 E0.00777
G1 X173.629 Y23.282 E0.01203
G1 X173.389 Y23.217 E0.00777
G1 X173.050 Y23.038 E0.01203
G1 X172.863 Y22.886 E0.00756
G1 X172.716 Y22.723 E0.00688
G1 X172.523 Y22.393 E0.01198
G1 X172.445 Y22.165 E0.00756
G1 X172.408 Y21.956 E0.00666
G1 X172.406 Y21.696 E0.00816
G1 X172.162 Y21.451 F10800.000
;WIPE_START
G1 F8640.000
G1 X172.474 Y21.331 E-0.08562
G1 X172.553 Y21.136 E-0.04868
G1 X172.658 Y20.953 E-0.04868
G1 X172.788 Y20.787 E-0.04867
G1 X172.940 Y20.641 E-0.04868
G1 X173.110 Y20.517 E-0.04868
G1 X173.297 Y20.418 E-0.04868
G1 X173.501 Y20.343 E-0.05027
G1 X173.879 Y20.288 E-0.08821
G1 X174.120 Y20.302 E-0.05565
G1 X174.328 Y20.346 E-0.04905
G1 X174.526 Y20.418 E-0.04868
G1 X174.712 Y20.517 E-0.04868
G1 X174.858 Y20.623 E-0.04179
;WIPE_END
G1 E-0.04000 F2100.000
G1 Z0.600 F10800.000
G1 X172.409 Y24.406
G1 Z0.200
G1 E0.80000 F2100.000
;TYPE:Perimeter
G1 F1200.000
G1 X172.835 Y24.630 E0.01509
G1 X173.380 Y24.777 E0.01771
G1 X174.079 Y24.823 E0.02197
G1 X174.638 Y24.735 E0.01771
G1 X175.283 Y24.497 E0.02155
G1 X175.699 Y24.237 E0.01541
G1 X176.084 Y23.904 E0.01594
G1 X176.504 Y23.360 E0.02155
G1 X176.714 Y22.931 E0.01499
G1 X176.844 Y22.530 E0.01322
G1 X176.918 Y22.114 E0.01322
G1 X176.922 Y21.598 E0.01619
G1 X187.319 Y43.700 E0.76584
G1 X204.896 Y43.700 E0.55113
M73 P2 R10
M73 Q2 S10
G1 X205.952 Y42.076 E0.06075
G1 X206.878 Y40.534 E0.05638
G1 X207.335 Y39.705 E0.02969
G1 X208.144 Y38.107 E0.05616
G1 X208.882 Y36.457 E0.05669
G1 X209.231 Y35.595 E0.02916
G1 X209.849 Y33.895 E0.05669
G1 X210.387 Y32.158 E0.05702
G1 X210.839 Y30.408 E0.05669
G1 X211.037 Y29.509 E0.02885
G1 X211.216 Y28.590 E0.02936
G1 X211.496 Y26.821 E0.05616
G1 X211.692 Y25.024 E0.05669
G1 X211.760 Y24.096 E0.02916
G1 X211.827 Y22.291 E0.05662
G1 X211.812 Y20.486 E0.05661
G1 X211.827 Y20.428 E0.00186
G1 X211.882 Y20.396 E0.00201
G1 X211.934 Y20.411 E0.00169
G1 X211.960 Y20.459 E0.00172
G1 X211.990 Y21.360 E0.02826
G1 X211.970 Y23.104 E0.05469
G1 X211.868 Y24.874 E0.05559
G1 X211.684 Y26.637 E0.05559
G1 X211.564 Y27.494 E0.02712
G1 X211.340 Y28.804 E0.04166
G1 X211.075 Y30.106 E0.04166
G1 X210.877 Y30.948 E0.02712
G1 X210.411 Y32.658 E0.05559
G1 X209.869 Y34.336 E0.05527
G1 X209.251 Y35.986 E0.05527
G1 X208.556 Y37.607 E0.05527
G1 X207.787 Y39.193 E0.05527
G1 X206.946 Y40.742 E0.05527
G1 X206.034 Y42.251 E0.05527
G1 X205.047 Y43.724 E0.05559
G1 X204.543 Y44.423 E0.02703
G1 X204.007 Y45.116 E0.02747
G1 X186.549 Y45.116 E0.54737
G1 X172.443 Y24.455 E0.78440
;WIPE_START
G1 F8640.000
G1 X172.835 Y24.630 E-0.09914
G1 X173.380 Y24.777 E-0.13045
G1 X174.079 Y24.823 E-0.16181
G1 X174.638 Y24.735 E-0.13045
G1 X175.283 Y24.497 E-0.15872
G1 X175.574 Y24.315 E-0.07943
;WIPE_END
G1 E-0.04000 F2100.000
G1 Z0.600 F10800.000
G1 X187.558 Y43.323
G1 Z0.200
G1 E0.80000 F2100.000
G1 F1200.000
G1 X204.691 Y43.323 E0.53721
M73 P3 R10
M73 Q3 S10
G1 X205.632 Y41.876 E0.05412
G1 X206.551 Y40.346 E0.05596
G1 X207.001 Y39.529 E0.02926
G1 X207.803 Y37.945 E0.05566
G1 X208.535 Y36.309 E0.05620
G1 X208.879 Y35.459 E0.02873
G1 X209.491 Y33.775 E0.05620
G1 X210.024 Y32.055 E0.05645
G1 X210.473 Y30.320 E0.05620
G1 X210.845 Y28.524 E0.05749
G1 X211.122 Y26.771 E0.05566
G1 X211.317 Y24.989 E0.05620
G1 X211.383 Y24.075 E0.02873
G1 X211.450 Y22.286 E0.05614
G1 X211.434 Y20.456 E0.05739
G1 X211.456 Y20.325 E0.00416
G1 X211.566 Y20.151 E0.00643
G1 X211.737 Y20.039 E0.00643
G1 X211.964 Y20.020 E0.00715
G1 X212.172 Y20.113 E0.00715
G1 X212.309 Y20.296 E0.00715
G1 X212.336 Y20.408 E0.00362
G1 X212.367 Y21.354 E0.02966
G1 X212.367 Y22.237 E0.02770
G1 X212.347 Y23.119 E0.02767
G1 X212.244 Y24.904 E0.05606
G1 X212.058 Y26.683 E0.05606
G1 X211.937 Y27.552 E0.02751
G1 X211.711 Y28.873 E0.04203
G1 X211.444 Y30.186 E0.04203
G1 X211.243 Y31.040 E0.02751
G1 X210.773 Y32.766 E0.05606
G1 X210.226 Y34.460 E0.05582
G1 X209.601 Y36.127 E0.05582
G1 X208.899 Y37.763 E0.05582
G1 X208.123 Y39.365 E0.05582
G1 X207.273 Y40.930 E0.05582
G1 X206.352 Y42.453 E0.05582
G1 X205.357 Y43.939 E0.05606
G1 X204.845 Y44.649 E0.02744
G1 X204.192 Y45.493 E0.03347
G1 X186.350 Y45.493 E0.55941
G1 X170.877 Y22.831 E0.86038
G1 X170.788 Y22.543 E0.00946
G1 X170.716 Y22.116 E0.01358
G1 X170.702 Y21.684 E0.01355
G1 X170.747 Y21.254 E0.01355
G1 X170.849 Y20.833 E0.01355
G1 X171.014 Y20.410 E0.01426
G1 X171.092 Y20.257 E0.00537
G1 X171.340 Y19.876 E0.01426
G1 X171.621 Y19.548 E0.01355
G1 X171.944 Y19.260 E0.01355
G1 X172.303 Y19.019 E0.01355
G1 X172.691 Y18.828 E0.01355
G1 X173.101 Y18.691 E0.01355
G1 X173.548 Y18.606 E0.01426
G1 X173.718 Y18.592 E0.00537
G1 X174.173 Y18.598 E0.01426
G1 X174.601 Y18.662 E0.01355
G1 X175.016 Y18.783 E0.01355
G1 X175.431 Y18.968 E0.01426
G1 X175.580 Y19.053 E0.00537
G1 X175.968 Y19.331 E0.01498
G1 X176.097 Y19.444 E0.00537
G1 X176.407 Y19.778 E0.01427
G1 X176.636 Y20.104 E0.01250
G1 X187.532 Y43.269 E0.80267
M73 P4 R10
M73 Q4 S10
G1 X187.797 Y42.946 F10800.000
G1 F1200.000
G1 X204.487 Y42.946 E0.52329
G1 X205.312 Y41.676 E0.04749
G1 X206.224 Y40.158 E0.05553
G1 X206.668 Y39.353 E0.02883
G1 X207.462 Y37.783 E0.05517
G1 X208.188 Y36.161 E0.05570
G1 X208.527 Y35.324 E0.02831
G1 X209.134 Y33.655 E0.05570
G1 X209.662 Y31.952 E0.05588
G1 X210.106 Y30.232 E0.05570
G1 X210.474 Y28.459 E0.05678
G1 X210.748 Y26.721 E0.05517
G1 X210.941 Y24.955 E0.05570
G1 X211.007 Y24.055 E0.02831
G1 X211.072 Y22.281 E0.05566
G1 X211.057 Y20.426 E0.05817
G1 X211.091 Y20.223 E0.00645
G1 X211.190 Y20.017 E0.00715
G1 X211.295 Y19.886 E0.00527
G1 X211.425 Y19.778 E0.00527
G1 X211.628 Y19.676 E0.00715
G1 X211.818 Y19.640 E0.00605
G1 X212.046 Y19.649 E0.00715
G1 X212.229 Y19.710 E0.00605
G1 X212.423 Y19.829 E0.00715
G1 X212.554 Y19.971 E0.00605
G1 X212.653 Y20.137 E0.00605
G1 X212.711 Y20.358 E0.00716
G1 X212.744 Y21.347 E0.03105
G1 X212.744 Y22.241 E0.02803
G1 X212.724 Y23.135 E0.02801
G1 X212.620 Y24.935 E0.05654
G1 X212.433 Y26.729 E0.05654
G1 X212.310 Y27.610 E0.02789
G1 X212.081 Y28.942 E0.04239
G1 X211.812 Y30.267 E0.04239
G1 X211.608 Y31.133 E0.02789
G1 X211.134 Y32.873 E0.05654
G1 X210.582 Y34.584 E0.05637
G1 X209.951 Y36.267 E0.05637
G1 X209.242 Y37.920 E0.05637
G1 X208.458 Y39.538 E0.05637
G1 X207.600 Y41.117 E0.05637
G1 X206.670 Y42.656 E0.05637
G1 X205.667 Y44.154 E0.05654
G1 X205.147 Y44.875 E0.02785
G1 X204.376 Y45.870 E0.03947
G1 X186.151 Y45.870 E0.57145
G1 X170.533 Y22.996 E0.86841
M73 P5 R10
M73 Q5 S10
G1 X170.420 Y22.630 E0.01203
G1 X170.340 Y22.153 E0.01517
G1 X170.325 Y21.670 E0.01515
G1 X170.374 Y21.189 E0.01515
G1 X170.488 Y20.720 E0.01515
G1 X170.670 Y20.255 E0.01566
G1 X170.766 Y20.068 E0.00656
G1 X171.037 Y19.649 E0.01566
G1 X171.352 Y19.283 E0.01515
G1 X171.713 Y18.962 E0.01515
G1 X172.114 Y18.692 E0.01515
G1 X172.547 Y18.479 E0.01515
G1 X173.006 Y18.326 E0.01515
G1 X173.496 Y18.232 E0.01566
G1 X173.705 Y18.214 E0.00656
G1 X174.204 Y18.221 E0.01566
G1 X174.682 Y18.293 E0.01515
G1 X175.146 Y18.428 E0.01515
G1 X175.602 Y18.631 E0.01566
G1 X175.784 Y18.735 E0.00656
G1 X176.203 Y19.035 E0.01617
G1 X176.360 Y19.174 E0.00656
G1 X176.700 Y19.540 E0.01567
G1 X176.963 Y19.913 E0.01433
G1 X187.772 Y42.892 E0.79620
G1 X188.037 Y42.569 F10800.000
G1 F1200.000
G1 X204.282 Y42.569 E0.50937
G1 X204.993 Y41.477 E0.04086
G1 X205.897 Y39.970 E0.05510
G1 X206.335 Y39.176 E0.02841
G1 X207.122 Y37.621 E0.05468
G1 X207.841 Y36.013 E0.05521
G1 X208.175 Y35.189 E0.02788
G1 X208.776 Y33.534 E0.05521
G1 X209.299 Y31.849 E0.05532
G1 X209.739 Y30.144 E0.05521
G1 X209.930 Y29.279 E0.02777
G1 X210.102 Y28.394 E0.02830
G1 X210.374 Y26.671 E0.05468
G1 X210.566 Y24.921 E0.05520
G1 X210.630 Y24.034 E0.02788
G1 X210.695 Y22.275 E0.05518
G1 X210.680 Y20.395 E0.05894
G1 X210.754 Y20.043 E0.01129
G1 X210.872 Y19.811 E0.00815
G1 X211.025 Y19.620 E0.00768
G1 X211.213 Y19.464 E0.00768
G1 X211.530 Y19.311 E0.01104
G1 X211.786 Y19.263 E0.00815
G1 X212.137 Y19.283 E0.01104
G1 X212.384 Y19.365 E0.00815
G1 X212.682 Y19.553 E0.01104
G1 X212.857 Y19.745 E0.00815
G1 X212.991 Y19.968 E0.00815
G1 X213.087 Y20.307 E0.01105
G1 X213.121 Y21.341 E0.03244
G1 X213.121 Y22.246 E0.02837
G1 X213.101 Y23.150 E0.02835
G1 X212.996 Y24.965 E0.05702
G1 X212.807 Y26.774 E0.05702
G1 X212.682 Y27.668 E0.02828
G1 X212.452 Y29.012 E0.04276
G1 X212.181 Y30.348 E0.04276
G1 X211.974 Y31.226 E0.02828
G1 X211.496 Y32.981 E0.05702
G1 X210.938 Y34.708 E0.05692
G1 X210.301 Y36.408 E0.05692
G1 X209.586 Y38.076 E0.05692
G1 X208.794 Y39.710 E0.05692
G1 X207.928 Y41.305 E0.05692
G1 X206.988 Y42.858 E0.05692
G1 X205.976 Y44.370 E0.05702
G1 X205.449 Y45.100 E0.02825
G1 X204.561 Y46.247 E0.04547
G1 X185.952 Y46.247 E0.58349
M73 P6 R10
M73 Q6 S10
G1 X170.190 Y23.162 E0.87643
G1 X170.052 Y22.717 E0.01460
G1 X169.964 Y22.190 E0.01675
G1 X169.947 Y21.657 E0.01674
G1 X170.002 Y21.125 E0.01674
G1 X170.128 Y20.606 E0.01674
G1 X170.326 Y20.100 E0.01706
G1 X170.439 Y19.879 E0.00776
G1 X170.734 Y19.423 E0.01706
G1 X171.082 Y19.018 E0.01674
G1 X171.481 Y18.663 E0.01674
G1 X171.924 Y18.365 E0.01674
G1 X172.404 Y18.129 E0.01674
G1 X172.910 Y17.960 E0.01674
G1 X173.445 Y17.858 E0.01706
G1 X173.691 Y17.837 E0.00776
G1 X174.235 Y17.845 E0.01706
G1 X174.763 Y17.924 E0.01674
G1 X175.276 Y18.074 E0.01674
G1 X175.773 Y18.295 E0.01706
G1 X175.988 Y18.418 E0.00776
G1 X176.438 Y18.740 E0.01737
G1 X176.624 Y18.903 E0.00776
G1 X176.994 Y19.302 E0.01706
G1 X177.291 Y19.723 E0.01616
G1 X188.011 Y42.515 E0.78972
G1 X188.276 Y42.192 F10800.000
;TYPE:External perimeter
G1 F1200.000
G1 X204.078 Y42.192 E0.49545
G1 X204.673 Y41.277 E0.03424
G1 X205.570 Y39.782 E0.05467
G1 X206.001 Y39.000 E0.02798
G1 X206.781 Y37.458 E0.05418
G1 X207.494 Y35.866 E0.05471
G1 X207.823 Y35.054 E0.02746
G1 X208.419 Y33.414 E0.05471
G1 X208.936 Y31.746 E0.05475
G1 X209.372 Y30.057 E0.05471
G1 X209.560 Y29.203 E0.02742
G1 X209.731 Y28.328 E0.02794
G1 X210.000 Y26.621 E0.05418
G1 X210.190 Y24.887 E0.05471
G1 X210.254 Y24.013 E0.02746
G1 X210.318 Y22.270 E0.05470
